packages/kaspersky-hexa-ui-icons/src/iconsSVGs/16/OSWindows.svg

<svg width="16" height="16" viewBox="0 0 16 16" fill="none" xmlns="http://www.w3.org/2000/svg">
<path fill-rule="evenodd" clip-rule="evenodd" d="M14.6501 4.81325C14.6501 3.63637 13.6614 2.70112 12.4864 2.7664L3.28638 3.27752C2.20006 3.33787 1.3501 4.23636 1.3501 5.32436V10.6756C1.3501 11.7636 2.20006 12.6621 3.28638 12.7224L12.4864 13.2336C13.6614 13.2988 14.6501 12.3636 14.6501 11.1867V4.81325ZM12.5585 4.0644C12.9884 4.04052 13.3501 4.38269 13.3501 4.81325V7.34994H7.98343V4.31857L12.5585 4.0644ZM6.68343 4.3908L3.3585 4.57551C2.96106 4.59759 2.6501 4.92631 2.6501 5.32436V7.34994H6.68343V4.3908ZM2.6501 8.64994H6.68343V11.6092L3.3585 11.4244C2.96106 11.4024 2.6501 11.0736 2.6501 10.6756V8.64994ZM7.98343 11.6814L12.5585 11.9356C12.9884 11.9594 13.3501 11.6173 13.3501 11.1867V8.64994H7.98343V11.6814Z" fill="black"/>
</svg>

<svg xmlns="http://www.w3.org/2000/svg" width="16" height="16" fill="none" viewBox="0 0 16 16"><path fill="#000" fill-rule="evenodd" d="M14.6501 4.8133c0-1.177-.9887-2.1122-2.1637-2.0469l-9.2.5111C2.2 3.338 1.35 4.2364 1.35 5.3244v5.3512c0 1.088.85 1.9865 1.9363 2.0468l9.2.5112c1.175.0652 2.1637-.87 2.1637-2.0469zm-2.0916-.7489a.75.75 0 0 1 .7916.7489v2.5366H7.9834V4.3186zm-5.875.3264-3.325.1847a.75.75 0 0 0-.7084.7489v2.0255h4.0333zM2.65 8.6499h4.0333v2.9593l-3.3249-.1848a.75.75 0 0 1-.7084-.7488zm5.3333 3.0315 4.5751.2542a.75.75 0 0 0 .7916-.7489V8.6499H7.9834z" clip-rule="evenodd"/></svg>
